X: 7
T: No_16_On_My_Enemy's_Ground.krn
N: Derived from No_16_On_My_Enemy's_Ground.krn
%%abc-version 2.0
%%abcx-abcm2ps-target-version 5.9.1 (29 Sep 2008)
%%abc-creator hum2abc beta
%%abcx-conversion-date 2019/03/15 08:27:55
%%humdrum-veritas 267815857
%%humdrum-veritas-data 2704204188
%%linebreak <none>
%%barnumbers 0
L: 1/8
M: 2/4
%%staves {1 2}
V: 1 clef=bass
V: 2 clef=bass
K: G
[V:1] [K:clef=bass][M:2/4]D/D/D/D/ A,A, | 
[V:2] [K:clef=bass][M:2/4]G,,G,, G,,G,, | 
[V:1] D3z | 
[V:2] z4 | 
[V:1] D/D/D/D/ A,A, | 
[V:2] z4 | 
[V:1] A,3z | 
[V:2] z4 | 
[V:1] A,A, B,A, | 
[V:2] z4 | 
[V:1] A,G,D,2 | 
[V:2] z4 | 
[V:1] D,G, G,A, | 
[V:2] z4 | 
[V:1] [M:5/8]G,A,G,D,D, | 
[V:2] [M:5/8](3:2:1z15/ | 
[V:1] [M:2/4]D,7/D,/ | 
[V:2] [M:2/4]z4 | 
[V:1] [M:3/4]D,4z3/ G,/ | 
[V:2] [M:3/4]z6 | 
[V:1] [M:5/8]A,B,A,/B,/G,G, | 
[V:2] [M:5/8](3:2:1z15/ | 
[V:1] [M:3/4]A,4z2 | 
[V:2] [M:3/4]z6 | 
[V:1] [M:7/8]B,2G,B,G,D,2 | 
[V:2] [M:7/8]z7 | 
[V:1] [M:2/4]D,G, G,A, | 
[V:2] [M:2/4]z4 | 
[V:1] [M:5/8]G,A,G,D,D, | 
[V:2] [M:5/8](3:2:1z15/ | 
[V:1] [M:2/4]D,7/D,/ | 
[V:2] [M:2/4]z4 | 
[V:1] D,2D, z |]  
[V:2] z4 |]  



